icons/parking_tickets_11.svg

<?xml version="1.0" encoding="UTF-8" standalone="no"?>
<svg
   xmlns:dc="http://purl.org/dc/elements/1.1/"
   xmlns:cc="http://creativecommons.org/ns#"
   xmlns:rdf="http://www.w3.org/1999/02/22-rdf-syntax-ns#"
   xmlns:svg="http://www.w3.org/2000/svg"
   xmlns="http://www.w3.org/2000/svg"
   width="14"
   height="14"
   viewBox="0 0 14 14"
   id="svg2"
   version="1.1">
  <metadata
     id="metadata10">
    <rdf:RDF>
      <cc:Work
         rdf:about="">
        <dc:format>image/svg+xml</dc:format>
        <dc:type
           rdf:resource="http://purl.org/dc/dcmitype/StillImage" />
        <dc:title></dc:title>
      </cc:Work>
    </rdf:RDF>
  </metadata>
  <defs
     id="defs8" />
  <rect
     style="fill:none;stroke:none;visibility:hidden"
     id="canvas"
     y="0"
     x="0"
     height="14"
     width="14" />
  <path
     id="path4"
     d="M 0,0 V 3 H 1 V 1 h 12 v 2 h 1 V 0 C 9.1718078,0 4.1536389,0 0,0 Z m 3,2 v 12 h 3 v -1 -0.04883 h 0.00195 C 6.0279852,12.418802 6.4669903,12.000405 7,12 c 0.53301,4.05e-4 0.9720209,0.418798 0.9980469,0.951172 H 8 V 13 14 h 3 V 2 H 10 V 13 H 9 C 9,11.895431 8.10457,11 7,11 5.8954305,11 5,11.895431 5,13 H 4 V 2 Z m 2,2 v 6 H 6 V 7.5 h 1.6660156 c 1.7779639,0 1.7779639,-3.5 0,-3.5 z m 1,0.875 h 1.4453125 c 0.9363943,0 0.9363943,1.75 0,1.75 H 6 Z"
     style="fill-rule:evenodd;stroke-width:0.47142929" />
</svg>

<?xml version="1.0" encoding="UTF-8" standalone="no"?>
<svg
   xmlns:dc="http://purl.org/dc/elements/1.1/"
   xmlns:cc="http://creativecommons.org/ns#"
   xmlns:rdf="http://www.w3.org/1999/02/22-rdf-syntax-ns#"
   xmlns:svg="http://www.w3.org/2000/svg"
   xmlns="http://www.w3.org/2000/svg"
   xmlns:sodipodi="http://sodipodi.sourceforge.net/DTD/sodipodi-0.dtd"
   xmlns:inkscape="http://www.inkscape.org/namespaces/inkscape"
   width="14"
   height="14"
   viewBox="0 0 14 14"
   id="svg2"
   version="1.1"
   sodipodi:docname="parking_tickets_11.svg"
   inkscape:version="0.92.4 (5da689c313, 2019-01-14)">
  <sodipodi:namedview
     pagecolor="#ffffff"
     bordercolor="#666666"
     borderopacity="1"
     objecttolerance="10"
     gridtolerance="10"
     guidetolerance="10"
     inkscape:pageopacity="0"
     inkscape:pageshadow="2"
     inkscape:window-width="1918"
     inkscape:window-height="1058"
     id="namedview9857"
     showgrid="false"
     inkscape:zoom="16.857143"
     inkscape:cx="7"
     inkscape:cy="7"
     inkscape:window-x="0"
     inkscape:window-y="20"
     inkscape:window-maximized="1"
     inkscape:current-layer="svg2" />
  <metadata
     id="metadata10">
    <rdf:RDF>
      <cc:Work
         rdf:about="">
        <dc:format>image/svg+xml</dc:format>
        <dc:type
           rdf:resource="http://purl.org/dc/dcmitype/StillImage" />
        <dc:title></dc:title>
      </cc:Work>
    </rdf:RDF>
  </metadata>
  <defs
     id="defs8" />
  <path
     id="path4"
     d="M 0,0 V 3 H 1 V 1 h 12 v 2 h 1 V 0 C 9.171808,0 4.153639,0 0,0 Z M 3,2 V 14 H 6 V 13 12.95117 H 6.002 C 6.02804,12.418802 6.467041,12.000405 7.00005,12 c 0.53301,4.05e-4 0.972021,0.418798 0.998047,0.951172 h 0.002 V 13 14 h 3 V 2 h -1 v 11 h -1 c 0,-1.104569 -0.89543,-2 -2,-2 -1.104569,0 -2,0.895431 -2,2 h -1 V 2 Z m 2,2 v 6 H 6 V 7.5 h 1.666016 c 1.777964,0 1.777964,-3.5 0,-3.5 z m 1,0.875 h 1.445313 c 0.936394,0 0.936394,1.75 0,1.75 H 6 Z"
     style="fill-rule:evenodd;stroke-width:0.47142929;fill:#444444;fill-opacity:1"
     inkscape:connector-curvature="0" />
</svg>
